X:1
T: Winter Waltz (2nd tune)
N:
C:"Captain O'Kane" by O'Carolan
S: Play  1st, 2nd, 1st, if used
A:
O:
R:
M:3/4
K:Em
I:speed 150
%W: A1
% voice 1 (1 lines, 32 notes)
K:Em
M:3/4
L:1/16
e2 d2 |B4 e4 f4 |g8 f2 e2 |f2 g2 a2 g2 f2 e2 |d4 e4 f4 |g4 b4 g4 |b2 a2 g2 f2 e2 d2 |B4 e4 e4 |e8 e2 d2 |
%W: A2
% voice 1 (1 lines, 30 notes)
B4 e4 f4 |g8 f2 e2 |f2 g2 a2 g2 f2 e2 |d4 e4 f4 |g4 b4 g4 |b2 a2 g2 f2 e2 d2 |B4 e4 e4 |e8 e2 d2 |
%W: B1
% voice 1 (1 lines, 24 notes)
G4 B4 B4 |B8 A2 G2 |F4 A4 A4 |A8 d2 c2 |B4 e4 ^d4 |e6 f2 g4 |B4 e4 ^d4 |e8 e2 f2 |
%W: B2
% voice 1 (1 lines, 25 notes)
g6 f2 e4 |d6 c2 B4 |A4 F4 d4 |D4 E4 F4 |G4 B4 g4 |b2 a2 g2 f2 e2 d2 |B4 e4 G4 |E8 ||
